build/images/icon-answer.svg

<svg width="20" height="20" viewBox="0 0 20 20" fill="none" xmlns="http://www.w3.org/2000/svg">
<path d="M16.9565 0H3.04349C1.3652 0 0 1.3652 0 3.04349V12.6087C0 14.287 1.3652 15.6522 3.04349 15.6522H12.4287L16.6496 19.873C16.7322 19.9557 16.8435 20 16.9566 20C17.0122 20 17.0696 19.9896 17.1227 19.9669C17.2852 19.9 17.3913 19.7408 17.3913 19.5652V15.6209C18.8644 15.4096 20 14.1391 20 12.6087V3.04349C20 1.3652 18.6348 0 16.9565 0ZM9.99998 13.0435C9.28084 13.0435 8.69563 12.4583 8.69563 11.7391C8.69563 11.02 9.28084 10.4348 9.99998 10.4348C10.7191 10.4348 11.3043 11.02 11.3043 11.7391C11.3043 12.4583 10.7191 13.0435 9.99998 13.0435ZM11.7357 4.00695L11.3609 8.30433C11.3113 9.00782 10.7122 9.56518 9.99998 9.56518C9.27998 9.56518 8.68173 9.00778 8.63217 8.2965L8.2652 4.01217C8.23911 3.64695 8.36433 3.28871 8.60955 3.02523C8.85652 2.76 9.20433 2.60869 9.56523 2.60869H10.4348C10.7956 2.60869 11.1435 2.76 11.3904 3.02523C11.6356 3.28956 11.7617 3.64695 11.7357 4.00695Z" fill="#808080"/>
</svg>

<svg width="20" height="20" fill="none" xmlns="http://www.w3.org/2000/svg"><path d="M16.956 0H3.043A3.047 3.047 0 000 3.043v9.566a3.047 3.047 0 003.043 3.043h9.386l4.22 4.221a.434.434 0 00.742-.308v-3.944A3.048 3.048 0 0020 12.609V3.043A3.047 3.047 0 0016.956 0zM10 13.043a1.305 1.305 0 11.002-2.61 1.305 1.305 0 01-.002 2.61zm1.736-9.036l-.375 4.297a1.368 1.368 0 01-2.729-.008l-.367-4.284c-.026-.365.1-.723.345-.987a1.31 1.31 0 01.955-.416h.87a1.308 1.308 0 011.301 1.398z" fill="gray"/></svg>
